packages/components/icon/src/assets/icons/lock.svg

<svg width="24" height="24" viewBox="0 0 24 24" fill="none" xmlns="http://www.w3.org/2000/svg">
<path fill-rule="evenodd" clip-rule="evenodd" d="M8 12V9C8 6.79086 9.79086 5 12 5C14.2091 5 16 6.79086 16 9V12C16.5523 12 17 12.4477 17 13V18C17 18.5523 16.5523 19 16 19H8C7.44772 19 7 18.5523 7 18V13C7 12.4477 7.44772 12 8 12ZM14 12V9C14 7.89543 13.1046 7 12 7C10.8954 7 10 7.89543 10 9V12H14ZM12 17C12.8284 17 13.5 16.3284 13.5 15.5C13.5 14.6716 12.8284 14 12 14C11.1716 14 10.5 14.6716 10.5 15.5C10.5 16.3284 11.1716 17 12 17Z" fill="currentColor"/>
</svg>

<svg viewBox="0 0 24 24" fill="none" xmlns="http://www.w3.org/2000/svg"><path fill-rule="evenodd" clip-rule="evenodd" d="M8 12V9a4 4 0 1 1 8 0v3a1 1 0 0 1 1 1v5a1 1 0 0 1-1 1H8a1 1 0 0 1-1-1v-5a1 1 0 0 1 1-1Zm6 0V9a2 2 0 1 0-4 0v3h4Zm-2 5a1.5 1.5 0 1 0 0-3 1.5 1.5 0 0 0 0 3Z" fill="currentColor"/></svg>
